<?xml version="1.0" encoding="UTF-8"?>
<map version="1.10" tiledversion="1.12.2" orientation="orthogonal" renderorder="right-down" width="60" height="34" tilewidth="32" tileheight="32" infinite="0" nextlayerid="6" nextobjectid="21">
 <tileset firstgid="1" name="Free-Nature-Backgrounds-Pixel-Art3" tilewidth="32" tileheight="32" spacing="1" margin="1" tilecount="1944" columns="54">
  <image source="Free-Nature-Backgrounds-Pixel-Art3.png" width="1800" height="1200"/>
 </tileset>
 <tileset firstgid="1945" name="Green-Zone-Tileset-Pixel-Art2" tilewidth="32" tileheight="32" spacing="1" margin="1" tilecount="1768" columns="52">
  <image source="Green-Zone-Tileset-Pixel-Art2.jpg" width="1743" height="1147"/>
 </tileset>
 <tileset firstgid="3713" name="Green-Zone-Tileset-Pixel-Art2" tilewidth="64" tileheight="64" spacing="1" margin="1" tilecount="442" columns="26">
  <image source="Green-Zone-Tileset-Pixel-Art2.jpg" width="1743" height="1147"/>
 </tileset>
 <tileset firstgid="4155" name="Free-Exclusion-Zone-Tileset-Pixel-Art3" tilewidth="32" tileheight="32" spacing="1" margin="1" tilecount="1944" columns="54">
  <image source="Free-Exclusion-Zone-Tileset-Pixel-Art3.jpg" width="1800" height="1200"/>
 </tileset>
 <tileset firstgid="6099" name="Green-Zone-Tileset-Pixel-Art3" tilewidth="32" tileheight="32" spacing="1" margin="1" tilecount="1944" columns="54" backgroundcolor="#ffffff">
  <image source="Green-Zone-Tileset-Pixel-Art3.jpg" width="1800" height="1200"/>
 </tileset>
 <tileset firstgid="8043" name="objectm4" tilewidth="175" tileheight="190" tilecount="78" columns="0">
  <grid orientation="orthogonal" width="1" height="1"/>
  <tile id="0">
   <image source="craftpix-net-846754-free-green-zone-tileset-pixel-art/3 Objects/Benches/1.png" width="45" height="22"/>
  </tile>
  <tile id="1">
   <image source="craftpix-net-846754-free-green-zone-tileset-pixel-art/3 Objects/Benches/2.png" width="48" height="22"/>
  </tile>
  <tile id="2">
   <image source="craftpix-net-846754-free-green-zone-tileset-pixel-art/3 Objects/Benches/3.png" width="45" height="10"/>
  </tile>
  <tile id="3">
   <image source="craftpix-net-846754-free-green-zone-tileset-pixel-art/3 Objects/Benches/4.png" width="48" height="10"/>
  </tile>
  <tile id="4">
   <image source="craftpix-net-846754-free-green-zone-tileset-pixel-art/3 Objects/Bushes/1.png" width="32" height="33"/>
  </tile>
  <tile id="5">
   <image source="craftpix-net-846754-free-green-zone-tileset-pixel-art/3 Objects/Bushes/2.png" width="32" height="33"/>
  </tile>
  <tile id="6">
   <image source="craftpix-net-846754-free-green-zone-tileset-pixel-art/3 Objects/Bushes/3.png" width="32" height="33"/>
  </tile>
  <tile id="7">
   <image source="craftpix-net-846754-free-green-zone-tileset-pixel-art/3 Objects/Bushes/4.png" width="32" height="33"/>
  </tile>
  <tile id="8">
   <image source="craftpix-net-846754-free-green-zone-tileset-pixel-art/3 Objects/Bushes/5.png" width="32" height="25"/>
  </tile>
  <tile id="9">
   <image source="craftpix-net-846754-free-green-zone-tileset-pixel-art/3 Objects/Bushes/6.png" width="32" height="25"/>
  </tile>
  <tile id="10">
   <image source="craftpix-net-846754-free-green-zone-tileset-pixel-art/3 Objects/Bushes/7.png" width="32" height="25"/>
  </tile>
  <tile id="11">
   <image source="craftpix-net-846754-free-green-zone-tileset-pixel-art/3 Objects/Bushes/8.png" width="32" height="25"/>
  </tile>
  <tile id="12">
   <image source="craftpix-net-846754-free-green-zone-tileset-pixel-art/3 Objects/Bushes/9.png" width="32" height="16"/>
  </tile>
  <tile id="13">
   <image source="craftpix-net-846754-free-green-zone-tileset-pixel-art/3 Objects/Bushes/10.png" width="32" height="16"/>
  </tile>
  <tile id="14">
   <image source="craftpix-net-846754-free-green-zone-tileset-pixel-art/3 Objects/Bushes/11.png" width="32" height="16"/>
  </tile>
  <tile id="15">
   <image source="craftpix-net-846754-free-green-zone-tileset-pixel-art/3 Objects/Bushes/12.png" width="32" height="16"/>
  </tile>
  <tile id="16">
   <image source="craftpix-net-846754-free-green-zone-tileset-pixel-art/3 Objects/Bushes/13.png" width="40" height="17"/>
  </tile>
  <tile id="17">
   <image source="craftpix-net-846754-free-green-zone-tileset-pixel-art/3 Objects/Bushes/14.png" width="40" height="16"/>
  </tile>
  <tile id="18">
   <image source="craftpix-net-846754-free-green-zone-tileset-pixel-art/3 Objects/Bushes/15.png" width="38" height="13"/>
  </tile>
  <tile id="19">
   <image source="craftpix-net-846754-free-green-zone-tileset-pixel-art/3 Objects/Bushes/16.png" width="22" height="10"/>
  </tile>
  <tile id="20">
   <image source="craftpix-net-846754-free-green-zone-tileset-pixel-art/3 Objects/Bushes/17.png" width="50" height="25"/>
  </tile>
  <tile id="21">
   <image source="craftpix-net-846754-free-green-zone-tileset-pixel-art/3 Objects/Bushes/18.png" width="41" height="24"/>
  </tile>
  <tile id="22">
   <image source="craftpix-net-846754-free-green-zone-tileset-pixel-art/3 Objects/Bushes/19.png" width="43" height="22"/>
  </tile>
  <tile id="23">
   <image source="craftpix-net-846754-free-green-zone-tileset-pixel-art/3 Objects/Bushes/20.png" width="30" height="19"/>
  </tile>
  <tile id="24">
   <image source="craftpix-net-846754-free-green-zone-tileset-pixel-art/3 Objects/Fence/1.png" width="35" height="64"/>
  </tile>
  <tile id="25">
   <image source="craftpix-net-846754-free-green-zone-tileset-pixel-art/3 Objects/Fence/2.png" width="35" height="64"/>
  </tile>
  <tile id="26">
   <image source="craftpix-net-846754-free-green-zone-tileset-pixel-art/3 Objects/Fence/2_1.png" width="17" height="41"/>
  </tile>
  <tile id="27">
   <image source="craftpix-net-846754-free-green-zone-tileset-pixel-art/3 Objects/Fence/3.png" width="35" height="64"/>
  </tile>
  <tile id="28">
   <image source="craftpix-net-846754-free-green-zone-tileset-pixel-art/3 Objects/Fence/4.png" width="35" height="64"/>
  </tile>
  <tile id="29">
   <image source="craftpix-net-846754-free-green-zone-tileset-pixel-art/3 Objects/Fence/4_1.png" width="3" height="41"/>
  </tile>
  <tile id="30">
   <image source="craftpix-net-846754-free-green-zone-tileset-pixel-art/3 Objects/Fence/5.png" width="35" height="64"/>
  </tile>
  <tile id="31">
   <image source="craftpix-net-846754-free-green-zone-tileset-pixel-art/3 Objects/Fence/6.png" width="48" height="64"/>
  </tile>
  <tile id="32">
   <image source="craftpix-net-846754-free-green-zone-tileset-pixel-art/3 Objects/Fence/7.png" width="48" height="64"/>
  </tile>
  <tile id="33">
   <image source="craftpix-net-846754-free-green-zone-tileset-pixel-art/3 Objects/Fountain/1.png" width="72" height="72"/>
  </tile>
  <tile id="34">
   <image source="craftpix-net-846754-free-green-zone-tileset-pixel-art/3 Objects/Fountain/2.png" width="72" height="72"/>
  </tile>
  <tile id="35">
   <image source="craftpix-net-846754-free-green-zone-tileset-pixel-art/3 Objects/Grass/1.png" width="8" height="6"/>
  </tile>
  <tile id="36">
   <image source="craftpix-net-846754-free-green-zone-tileset-pixel-art/3 Objects/Grass/2.png" width="8" height="6"/>
  </tile>
  <tile id="37">
   <image source="craftpix-net-846754-free-green-zone-tileset-pixel-art/3 Objects/Grass/3.png" width="8" height="7"/>
  </tile>
  <tile id="38">
   <image source="craftpix-net-846754-free-green-zone-tileset-pixel-art/3 Objects/Grass/4.png" width="6" height="5"/>
  </tile>
  <tile id="39">
   <image source="craftpix-net-846754-free-green-zone-tileset-pixel-art/3 Objects/Grass/5.png" width="8" height="8"/>
  </tile>
  <tile id="40">
   <image source="craftpix-net-846754-free-green-zone-tileset-pixel-art/3 Objects/Grass/6.png" width="7" height="5"/>
  </tile>
  <tile id="41">
   <image source="craftpix-net-846754-free-green-zone-tileset-pixel-art/3 Objects/Grass/7.png" width="7" height="7"/>
  </tile>
  <tile id="42">
   <image source="craftpix-net-846754-free-green-zone-tileset-pixel-art/3 Objects/Grass/8.png" width="7" height="5"/>
  </tile>
  <tile id="43">
   <image source="craftpix-net-846754-free-green-zone-tileset-pixel-art/3 Objects/Grass/9.png" width="6" height="5"/>
  </tile>
  <tile id="44">
   <image source="craftpix-net-846754-free-green-zone-tileset-pixel-art/3 Objects/Grass/10.png" width="10" height="7"/>
  </tile>
  <tile id="45">
   <image source="craftpix-net-846754-free-green-zone-tileset-pixel-art/3 Objects/Grass/11.png" width="7" height="5"/>
  </tile>
  <tile id="46">
   <image source="craftpix-net-846754-free-green-zone-tileset-pixel-art/3 Objects/Grass/12.png" width="7" height="5"/>
  </tile>
  <tile id="47">
   <image source="craftpix-net-846754-free-green-zone-tileset-pixel-art/3 Objects/Grass/13.png" width="5" height="4"/>
  </tile>
  <tile id="48">
   <image source="craftpix-net-846754-free-green-zone-tileset-pixel-art/3 Objects/Grass/14.png" width="8" height="6"/>
  </tile>
  <tile id="49">
   <image source="craftpix-net-846754-free-green-zone-tileset-pixel-art/3 Objects/Grass/15.png" width="7" height="6"/>
  </tile>
  <tile id="50">
   <image source="craftpix-net-846754-free-green-zone-tileset-pixel-art/3 Objects/Leaf/1.png" width="8" height="8"/>
  </tile>
  <tile id="51">
   <image source="craftpix-net-846754-free-green-zone-tileset-pixel-art/3 Objects/Leaf/2.png" width="8" height="8"/>
  </tile>
  <tile id="52">
   <image source="craftpix-net-846754-free-green-zone-tileset-pixel-art/3 Objects/Leaf/3.png" width="8" height="8"/>
  </tile>
  <tile id="53">
   <image source="craftpix-net-846754-free-green-zone-tileset-pixel-art/3 Objects/Leaf/4.png" width="8" height="8"/>
  </tile>
  <tile id="54">
   <image source="craftpix-net-846754-free-green-zone-tileset-pixel-art/3 Objects/Leaf/5.png" width="8" height="8"/>
  </tile>
  <tile id="55">
   <image source="craftpix-net-846754-free-green-zone-tileset-pixel-art/3 Objects/Leaf/6.png" width="8" height="8"/>
  </tile>
  <tile id="56">
   <image source="craftpix-net-846754-free-green-zone-tileset-pixel-art/3 Objects/Other/Box.png" width="32" height="25"/>
  </tile>
  <tile id="57">
   <image source="craftpix-net-846754-free-green-zone-tileset-pixel-art/3 Objects/Other/Garbage_Can1.png" width="15" height="13"/>
  </tile>
  <tile id="58">
   <image source="craftpix-net-846754-free-green-zone-tileset-pixel-art/3 Objects/Other/Garbage_Can2.png" width="15" height="13"/>
  </tile>
  <tile id="59">
   <image source="craftpix-net-846754-free-green-zone-tileset-pixel-art/3 Objects/Other/Ladder1.png" width="23" height="32"/>
  </tile>
  <tile id="60">
   <image source="craftpix-net-846754-free-green-zone-tileset-pixel-art/3 Objects/Other/Ladder2.png" width="23" height="32"/>
  </tile>
  <tile id="61">
   <image source="craftpix-net-846754-free-green-zone-tileset-pixel-art/3 Objects/Other/Ramp1.png" width="92" height="48"/>
  </tile>
  <tile id="62">
   <image source="craftpix-net-846754-free-green-zone-tileset-pixel-art/3 Objects/Other/Ramp2.png" width="92" height="48"/>
  </tile>
  <tile id="63">
   <image source="craftpix-net-846754-free-green-zone-tileset-pixel-art/3 Objects/Other/Rapm3.png" width="144" height="39"/>
  </tile>
  <tile id="64">
   <image source="craftpix-net-846754-free-green-zone-tileset-pixel-art/3 Objects/Other/Skateboard1.png" width="26" height="7"/>
  </tile>
  <tile id="65">
   <image source="craftpix-net-846754-free-green-zone-tileset-pixel-art/3 Objects/Other/Skateboard2.png" width="11" height="20"/>
  </tile>
  <tile id="66">
   <image source="craftpix-net-846754-free-green-zone-tileset-pixel-art/3 Objects/Other/Skateboard3.png" width="10" height="20"/>
  </tile>
  <tile id="67">
   <image source="craftpix-net-846754-free-green-zone-tileset-pixel-art/3 Objects/Other/Skateboard4.png" width="12" height="20"/>
  </tile>
  <tile id="68">
   <image source="craftpix-net-846754-free-green-zone-tileset-pixel-art/3 Objects/Other/Tree1.png" width="62" height="103"/>
  </tile>
  <tile id="69">
   <image source="craftpix-net-846754-free-green-zone-tileset-pixel-art/3 Objects/Other/Tree2.png" width="124" height="129"/>
  </tile>
  <tile id="70">
   <image source="craftpix-net-846754-free-green-zone-tileset-pixel-art/3 Objects/Other/Tree3.png" width="175" height="190"/>
  </tile>
  <tile id="71">
   <image source="craftpix-net-846754-free-green-zone-tileset-pixel-art/3 Objects/Other/Tree4.png" width="175" height="190"/>
  </tile>
  <tile id="72">
   <image source="craftpix-net-846754-free-green-zone-tileset-pixel-art/3 Objects/Stones/1.png" width="10" height="7"/>
  </tile>
  <tile id="73">
   <image source="craftpix-net-846754-free-green-zone-tileset-pixel-art/3 Objects/Stones/2.png" width="22" height="14"/>
  </tile>
  <tile id="74">
   <image source="craftpix-net-846754-free-green-zone-tileset-pixel-art/3 Objects/Stones/3.png" width="27" height="16"/>
  </tile>
  <tile id="75">
   <image source="craftpix-net-846754-free-green-zone-tileset-pixel-art/3 Objects/Stones/4.png" width="39" height="17"/>
  </tile>
  <tile id="76">
   <image source="craftpix-net-846754-free-green-zone-tileset-pixel-art/3 Objects/Stones/5.png" width="46" height="22"/>
  </tile>
  <tile id="77">
   <image source="craftpix-net-846754-free-green-zone-tileset-pixel-art/3 Objects/Stones/6.png" width="70" height="44"/>
  </tile>
 </tileset>
 <layer id="1" name="Tile Layer 2" width="60" height="34">
  <data encoding="csv">
0,0,0,0,0,0,0,0,0,0,0,0,0,0,0,0,0,0,0,0,0,0,0,0,0,0,0,0,0,0,0,0,0,0,0,0,0,0,0,0,0,0,0,0,0,0,0,0,0,0,0,0,0,0,0,0,0,0,0,0,
0,0,0,0,0,0,0,0,0,0,0,0,0,0,0,0,0,0,0,0,0,0,0,0,0,0,0,0,0,0,0,0,0,0,0,0,0,0,0,0,0,0,0,0,0,0,0,0,0,0,0,0,0,0,0,0,0,0,0,0,
0,0,0,0,0,0,0,0,0,0,0,0,0,0,0,0,0,0,0,0,0,0,0,0,0,0,0,0,0,0,0,0,0,0,0,0,0,0,0,0,0,0,0,0,0,0,0,0,0,0,0,0,0,0,0,0,0,0,0,0,
0,0,0,0,0,0,0,0,0,0,0,0,0,0,0,0,0,0,0,0,0,0,0,0,0,0,0,0,0,0,0,0,0,0,0,0,0,0,0,0,0,0,0,0,0,0,0,0,0,0,0,0,0,0,0,0,0,0,0,0,
0,0,0,0,0,0,0,0,0,0,0,0,0,0,0,0,0,0,0,0,0,0,0,0,0,0,0,0,0,0,0,0,0,0,0,0,0,0,0,0,0,0,0,0,0,0,0,0,0,0,0,0,0,0,0,0,0,0,0,0,
0,0,0,0,0,0,0,0,0,0,0,0,0,0,0,0,0,0,0,0,0,0,0,0,0,0,0,0,0,0,0,0,0,0,0,0,0,0,0,0,0,0,0,0,0,0,0,0,0,0,0,0,0,0,0,0,0,0,0,0,
0,0,0,0,0,0,0,0,0,0,0,0,0,0,0,0,0,0,0,0,0,0,0,0,0,0,0,0,0,0,0,0,0,0,0,0,0,0,0,0,0,0,0,0,0,0,0,0,0,0,0,0,0,0,0,0,0,0,0,0,
0,0,0,0,0,0,0,0,0,0,0,0,0,0,0,0,0,0,0,0,0,0,0,0,0,0,0,0,0,3947,3948,0,3950,0,3948,0,3950,0,3954,0,3950,0,3954,0,3950,0,3954,0,3950,0,3954,3714,0,0,0,0,0,0,0,0,
0,0,0,0,0,0,0,0,0,0,0,0,0,0,0,0,0,0,0,0,0,0,0,0,0,0,0,0,0,3739,3740,0,3739,3740,3739,3740,3739,3740,3739,3740,3739,3740,3739,3740,3739,3740,3739,3740,3739,3740,3739,3740,0,0,0,0,0,0,0,0,
0,0,0,0,0,0,0,0,0,0,0,0,0,0,0,0,0,0,0,0,0,0,0,0,0,0,0,0,0,0,0,0,0,0,0,0,0,0,0,0,0,0,0,0,0,0,0,0,0,0,0,0,0,0,0,0,0,0,0,0,
0,0,0,0,0,0,0,0,0,0,0,0,0,0,0,0,0,0,0,0,0,0,0,0,0,0,0,0,0,0,0,0,0,0,0,0,0,0,0,0,0,0,0,0,0,0,0,0,0,0,0,0,0,0,0,0,0,0,0,0,
0,0,0,0,0,0,0,0,0,0,0,0,0,0,0,0,0,0,0,0,0,0,0,0,0,0,0,0,0,0,0,0,0,0,0,0,0,0,0,0,0,0,0,0,0,0,0,0,0,0,0,0,0,0,0,0,0,0,0,0,
0,0,0,0,0,0,0,0,0,0,0,0,0,0,0,0,0,3947,3948,0,3950,0,3952,3950,0,3950,0,3954,3714,0,0,0,0,0,0,0,0,0,0,0,0,0,0,0,0,0,0,0,0,0,0,0,0,0,0,0,0,0,0,0,
0,0,0,0,0,0,0,0,0,0,0,0,0,0,0,0,0,3739,3740,0,3739,3740,3739,3740,0,3739,3740,3739,3740,0,0,0,0,0,0,0,0,0,0,0,0,0,0,0,0,0,0,0,0,0,0,0,0,0,0,0,0,0,0,0,
0,0,0,0,0,0,0,0,0,0,0,0,0,0,0,0,0,0,0,0,0,0,0,0,0,0,0,0,0,0,0,0,0,3947,3948,0,3952,0,3954,3714,0,0,0,0,0,0,0,0,0,0,0,0,0,0,0,0,0,0,0,0,
0,0,0,0,0,0,0,0,0,0,0,0,0,0,0,0,0,0,0,0,0,0,0,0,0,0,0,0,0,0,0,0,0,3739,3740,0,3739,3740,3739,3740,0,0,0,0,0,0,0,0,0,0,0,0,0,0,0,0,0,0,0,0,
0,0,0,0,0,0,3947,3948,0,3950,0,3952,0,3954,3714,0,0,0,0,0,0,0,0,0,0,0,0,0,0,0,0,0,0,0,0,0,0,0,0,0,0,0,0,0,0,0,0,0,0,0,0,0,0,0,0,0,0,0,0,0,
0,0,0,0,0,0,3739,3740,0,3739,3740,3739,3740,3739,3740,0,0,0,0,0,0,0,0,0,0,0,0,0,0,0,0,0,0,0,0,0,0,0,0,0,0,0,0,0,0,0,0,0,0,0,0,0,0,0,0,0,0,0,0,0,
0,0,0,0,0,0,0,0,0,0,0,0,0,0,0,0,0,0,0,0,0,0,0,0,0,0,0,0,0,0,0,0,0,0,0,0,0,0,0,0,0,0,0,0,0,0,0,0,0,0,0,0,0,0,0,0,0,0,0,0,
0,0,0,0,0,0,0,0,0,0,0,0,0,0,0,0,0,0,0,0,0,0,0,0,0,0,0,0,0,0,0,0,0,0,0,0,0,0,0,0,0,0,0,0,0,0,0,0,0,0,0,0,0,0,0,0,0,0,0,0,
0,0,0,0,0,0,0,0,0,0,1945,1946,1947,1950,1951,1952,1950,1951,1952,1950,1951,1952,1950,1951,1952,1950,1951,1952,1950,1951,1952,1950,1951,1952,1950,1951,1952,1950,1951,1952,1950,1951,1952,1950,1951,1952,1955,1955,1956,1957,0,0,0,0,0,0,0,0,0,0,
0,0,0,0,0,0,0,0,0,0,1997,1998,1999,2002,2003,2004,2002,2003,2004,2002,2003,2004,2002,2003,2004,2002,2003,2004,2002,2003,2004,2002,2003,2004,2002,2003,2004,2002,2003,2004,2002,2003,2004,2002,2003,2004,2007,2007,2008,2009,0,0,0,0,0,0,0,0,0,0,
0,0,0,0,0,0,0,0,0,0,2049,2050,2051,2054,2055,2056,2054,2055,2056,2054,2055,2056,2054,2055,2056,2054,2055,2056,2054,2055,2056,2054,2055,2056,2054,2055,2056,2054,2055,2056,2054,2055,2056,2054,2055,2056,2059,2059,2060,2061,0,0,0,0,0,0,0,0,0,0,
0,0,0,0,0,0,0,0,0,0,2101,2102,2103,2106,2107,2108,2106,2107,2108,2106,2107,2108,2106,2107,2108,2106,2107,2108,2106,2107,2108,2106,2107,2108,2106,2107,2108,2106,2107,2108,2106,2107,2108,2106,2107,2108,2111,2111,2112,2113,0,0,0,0,0,0,0,0,0,0,
0,0,0,0,0,0,0,0,0,0,0,0,0,0,0,0,0,0,0,0,0,0,0,0,0,0,0,0,0,0,0,0,0,0,0,0,0,0,0,0,0,0,0,0,0,0,0,0,0,0,0,0,0,0,0,0,0,0,0,0,
0,0,0,0,0,0,0,0,0,0,0,0,0,0,0,0,0,0,0,0,0,0,0,0,0,0,0,0,0,0,0,0,0,0,0,0,0,0,0,0,0,0,0,0,0,0,0,0,0,0,0,0,0,0,0,0,0,0,0,0,
0,0,0,0,0,0,0,0,0,0,0,0,0,0,0,0,0,0,0,0,0,0,0,0,0,0,0,0,0,0,0,0,0,0,0,0,0,0,0,0,0,0,0,0,0,0,0,0,0,0,0,0,0,0,0,0,0,0,0,0,
0,0,0,0,0,0,0,0,0,0,0,0,0,0,0,0,0,0,0,0,0,0,0,0,0,0,0,0,0,0,0,0,0,0,0,0,0,0,0,0,0,0,0,0,0,0,0,0,0,0,0,0,0,0,0,0,0,0,0,0,
0,0,0,0,0,0,0,0,0,0,0,0,0,0,0,0,0,0,0,0,0,0,0,0,0,0,0,0,0,0,0,0,0,0,0,0,0,0,0,0,0,0,0,0,0,0,0,0,0,0,0,0,0,0,0,0,0,0,0,0,
0,0,0,0,0,0,0,0,0,0,0,0,0,0,0,0,0,0,0,0,0,0,0,0,0,0,0,0,0,0,0,0,0,0,0,0,0,0,0,0,0,0,0,0,0,0,0,0,0,0,0,0,0,0,0,0,0,0,0,0,
0,0,0,0,0,0,0,0,0,0,0,0,0,0,0,0,0,0,0,0,0,0,0,0,0,0,0,0,0,0,0,0,0,0,0,0,0,0,0,0,0,0,0,0,0,0,0,0,0,0,0,0,0,0,0,0,0,0,0,0,
0,0,0,0,0,0,0,0,0,0,0,0,0,0,0,0,0,0,0,0,0,0,0,0,0,0,0,0,0,0,0,0,0,0,0,0,0,0,0,0,0,0,0,0,0,0,0,0,0,0,0,0,0,0,0,0,0,0,0,0,
0,0,0,0,0,0,0,0,0,0,0,0,0,0,0,0,0,0,0,0,0,0,0,0,0,0,0,0,0,0,0,0,0,0,0,0,0,0,0,0,0,0,0,0,0,0,0,0,0,0,0,0,0,0,0,0,0,0,0,0,
0,0,0,0,0,0,0,0,0,0,0,0,0,0,0,0,0,0,0,0,0,0,0,0,0,0,0,0,0,0,0,0,0,0,0,0,0,0,0,0,0,0,0,0,0,0,0,0,0,0,0,0,0,0,0,0,0,0,0,0
</data>
 </layer>
 <layer id="5" name="Tile Layer 1" width="60" height="34">
  <data encoding="csv">
0,0,0,0,0,0,0,0,0,0,0,0,0,0,0,0,0,0,0,0,0,0,0,0,0,0,0,0,0,0,0,0,0,0,0,0,0,0,0,0,0,0,0,0,0,0,0,0,0,0,0,0,0,0,0,0,0,0,0,0,
0,0,0,0,0,0,0,0,0,0,0,0,0,0,0,0,0,0,0,0,0,0,0,0,0,0,0,0,0,0,0,0,0,0,0,0,0,0,0,0,0,0,0,0,0,0,0,0,0,0,0,0,0,0,0,0,0,0,0,0,
0,0,0,0,0,0,0,0,0,0,0,0,0,0,0,0,0,0,0,0,0,0,0,0,0,0,0,0,0,0,0,0,0,0,0,0,0,0,0,0,0,0,0,0,0,0,0,0,0,0,0,0,0,0,0,0,0,0,0,0,
0,0,0,0,0,0,0,0,0,0,0,0,0,0,0,0,0,0,0,0,0,0,0,0,0,0,0,0,0,0,0,0,0,0,0,0,0,0,0,0,0,0,0,0,0,0,0,0,0,0,0,0,0,0,0,0,0,0,0,0,
0,0,0,0,0,0,0,0,0,0,0,0,0,0,0,0,0,0,0,0,0,0,0,0,0,0,0,0,0,0,0,0,0,0,0,0,0,0,0,0,0,0,0,0,0,0,0,0,0,0,0,0,0,0,0,0,0,0,0,0,
0,0,0,0,0,0,0,0,0,0,0,0,0,0,0,0,0,0,0,0,0,0,0,0,0,0,0,0,0,0,0,0,0,0,0,0,0,0,0,0,0,0,0,0,0,0,0,0,0,0,0,0,0,0,0,0,0,0,0,0,
0,0,0,0,0,0,0,0,0,0,0,0,0,0,0,0,0,0,0,0,0,0,0,0,0,0,0,0,0,0,0,0,0,0,0,0,0,0,0,0,0,0,0,0,0,0,0,0,0,0,0,0,0,0,0,0,0,0,0,0,
0,0,0,0,0,0,0,0,0,0,0,0,0,0,0,0,0,0,0,0,0,0,0,0,0,0,0,0,0,3947,3948,0,3950,0,3948,0,3950,0,3954,0,3950,0,3954,0,3950,0,3954,0,3950,0,3954,3714,0,0,0,0,0,0,0,0,
0,0,0,0,0,0,0,0,0,0,0,0,0,0,0,0,0,0,0,0,0,0,0,0,0,0,0,0,0,3739,3740,0,3739,3740,3739,3740,3739,3740,3739,3740,3739,3740,3739,3740,3739,3740,3739,3740,3739,3740,3739,3740,0,0,0,0,0,0,0,0,
0,0,0,0,0,0,0,0,0,0,0,0,0,0,0,0,0,0,0,0,0,0,0,0,0,0,0,0,0,0,0,0,0,0,0,0,0,0,0,0,0,0,0,0,0,0,0,0,0,0,0,0,0,0,0,0,0,0,0,0,
0,0,0,0,0,0,0,0,0,0,0,0,0,0,0,0,0,0,0,0,0,0,0,0,0,0,0,0,0,0,0,0,0,0,0,0,0,0,0,0,0,0,0,0,0,0,0,0,0,0,0,0,0,0,0,0,0,0,0,0,
0,0,0,0,0,0,0,0,0,0,0,0,0,0,0,0,0,0,0,0,0,0,0,0,0,0,0,0,0,0,0,0,0,0,0,0,0,0,0,0,0,0,0,0,0,0,0,0,0,0,0,0,0,0,0,0,0,0,0,0,
0,0,0,0,0,0,0,0,0,0,0,0,0,0,0,0,0,3947,3948,0,3950,0,3952,3950,0,3950,0,3954,3714,0,0,0,0,0,0,0,0,0,0,0,0,0,0,0,0,0,0,0,0,0,0,0,0,0,0,0,0,0,0,0,
0,0,0,0,0,0,0,0,0,0,0,0,0,0,0,0,0,3739,3740,0,3739,3740,3739,3740,0,3739,3740,3739,3740,0,0,0,0,0,0,0,0,0,0,0,0,0,0,0,0,0,0,0,0,0,0,0,0,0,0,0,0,0,0,0,
0,0,0,0,0,0,0,0,0,0,0,0,0,0,0,0,0,0,0,0,0,0,0,0,0,0,0,0,0,0,0,0,0,3947,3948,0,3952,0,3954,3714,0,0,0,0,0,0,0,0,0,0,0,0,0,0,0,0,0,0,0,0,
0,0,0,0,0,0,0,0,0,0,0,0,0,0,0,0,0,0,0,0,0,0,0,0,0,0,0,0,0,0,0,0,0,3739,3740,0,3739,3740,3739,3740,0,0,0,0,0,0,0,0,0,0,0,0,0,0,0,0,0,0,0,0,
0,0,0,0,0,0,3947,3948,0,3950,0,3952,0,3954,3714,0,0,0,0,0,0,0,0,0,0,0,0,0,0,0,0,0,0,0,0,0,0,0,0,0,0,0,0,0,0,0,0,0,0,0,0,0,0,0,0,0,0,0,0,0,
0,0,0,0,0,0,3739,3740,0,3739,3740,3739,3740,3739,3740,0,0,0,0,0,0,0,0,0,0,0,0,0,0,0,0,0,0,0,0,0,0,0,0,0,0,0,0,0,0,0,0,0,0,0,0,0,0,0,0,0,0,0,0,0,
0,0,0,0,0,0,0,0,0,0,0,0,0,0,0,0,0,0,0,0,0,0,0,0,0,0,0,0,0,0,0,0,0,0,0,0,0,0,0,0,0,0,0,0,0,0,0,0,0,0,0,0,0,0,0,0,0,0,0,0,
0,0,0,0,0,0,0,0,0,0,0,0,0,0,0,0,0,0,0,0,0,0,0,0,0,0,0,0,0,0,0,0,0,0,0,0,0,0,0,0,0,0,0,0,0,0,0,0,0,0,0,0,0,0,0,0,0,0,0,0,
0,0,0,0,0,0,0,0,0,0,1945,1946,1947,1950,1951,1952,1950,1951,1952,1950,1951,1952,1950,1951,1952,1950,1951,1952,1950,1951,1952,1950,1951,1952,1950,1951,1952,1950,1951,1952,1950,1951,1952,1950,1951,1952,1955,1955,1956,1957,0,0,0,0,0,0,0,0,0,0,
0,0,0,0,0,0,0,0,0,0,1997,1998,1999,2002,2003,2004,2002,2003,2004,2002,2003,2004,2002,2003,2004,2002,2003,2004,2002,2003,2004,2002,2003,2004,2002,2003,2004,2002,2003,2004,2002,2003,2004,2002,2003,2004,2007,2007,2008,2009,0,0,0,0,0,0,0,0,0,0,
0,0,0,0,0,0,0,0,0,0,2049,2050,2051,2054,2055,2056,2054,2055,2056,2054,2055,2056,2054,2055,2056,2054,2055,2056,2054,2055,2056,2054,2055,2056,2054,2055,2056,2054,2055,2056,2054,2055,2056,2054,2055,2056,2059,2059,2060,2061,0,0,0,0,0,0,0,0,0,0,
0,0,0,0,0,0,0,0,0,0,2101,2102,2103,2106,2107,2108,2106,2107,2108,2106,2107,2108,2106,2107,2108,2106,2107,2108,2106,2107,2108,2106,2107,2108,2106,2107,2108,2106,2107,2108,2106,2107,2108,2106,2107,2108,2111,2111,2112,2113,0,0,0,0,0,0,0,0,0,0,
0,0,0,0,0,0,0,0,0,0,0,0,0,0,0,0,0,0,0,0,0,0,0,0,0,0,0,0,0,0,0,0,0,0,0,0,0,0,0,0,0,0,0,0,0,0,0,0,0,0,0,0,0,0,0,0,0,0,0,0,
0,0,0,0,0,0,0,0,0,0,0,0,0,0,0,0,0,0,0,0,0,0,0,0,0,0,0,0,0,0,0,0,0,0,0,0,0,0,0,0,0,0,0,0,0,0,0,0,0,0,0,0,0,0,0,0,0,0,0,0,
0,0,0,0,0,0,0,0,0,0,0,0,0,0,0,0,0,0,0,0,0,0,0,0,0,0,0,0,0,0,0,0,0,0,0,0,0,0,0,0,0,0,0,0,0,0,0,0,0,0,0,0,0,0,0,0,0,0,0,0,
0,0,0,0,0,0,0,0,0,0,0,0,0,0,0,0,0,0,0,0,0,0,0,0,0,0,0,0,0,0,0,0,0,0,0,0,0,0,0,0,0,0,0,0,0,0,0,0,0,0,0,0,0,0,0,0,0,0,0,0,
0,0,0,0,0,0,0,0,0,0,0,0,0,0,0,0,0,0,0,0,0,0,0,0,0,0,0,0,0,0,0,0,0,0,0,0,0,0,0,0,0,0,0,0,0,0,0,0,0,0,0,0,0,0,0,0,0,0,0,0,
0,0,0,0,0,0,0,0,0,0,0,0,0,0,0,0,0,0,0,0,0,0,0,0,0,0,0,0,0,0,0,0,0,0,0,0,0,0,0,0,0,0,0,0,0,0,0,0,0,0,0,0,0,0,0,0,0,0,0,0,
0,0,0,0,0,0,0,0,0,0,0,0,0,0,0,0,0,0,0,0,0,0,0,0,0,0,0,0,0,0,0,0,0,0,0,0,0,0,0,0,0,0,0,0,0,0,0,0,0,0,0,0,0,0,0,0,0,0,0,0,
0,0,0,0,0,0,0,0,0,0,0,0,0,0,0,0,0,0,0,0,0,0,0,0,0,0,0,0,0,0,0,0,0,0,0,0,0,0,0,0,0,0,0,0,0,0,0,0,0,0,0,0,0,0,0,0,0,0,0,0,
0,0,0,0,0,0,0,0,0,0,0,0,0,0,0,0,0,0,0,0,0,0,0,0,0,0,0,0,0,0,0,0,0,0,0,0,0,0,0,0,0,0,0,0,0,0,0,0,0,0,0,0,0,0,0,0,0,0,0,0,
0,0,0,0,0,0,0,0,0,0,0,0,0,0,0,0,0,0,0,0,0,0,0,0,0,0,0,0,0,0,0,0,0,0,0,0,0,0,0,0,0,0,0,0,0,0,0,0,0,0,0,0,0,0,0,0,0,0,0,0
</data>
 </layer>
 <objectgroup id="3" name="oneWayPlatform">
  <object id="13" type="oneWayPlatform" x="930" y="216.333" width="766" height="16"/>
  <object id="16" type="oneWayPlatform" x="546.667" y="380" width="414.667" height="12.6667"/>
  <object id="17" type="oneWayPlatform" x="193.333" y="508.667" width="318" height="12"/>
  <object id="18" type="oneWayPlatform" x="1059" y="439.667" width="255.333" height="12.6667"/>
 </objectgroup>
 <objectgroup id="4" name="platform">
  <object id="20" type="platform" x="317.333" y="644" width="1276" height="18"/>
 </objectgroup>
</map>
