<?xml version="1.0" encoding="UTF-8"?>
<map version="1.10" tiledversion="1.12.2" orientation="orthogonal" renderorder="right-down" width="60" height="34" tilewidth="32" tileheight="32" infinite="0" nextlayerid="5" nextobjectid="30">
 <tileset firstgid="1" name="Tiles &amp; Objects (128x128)-01" tilewidth="32" tileheight="32" tilecount="1408" columns="32">
  <image source="../../map6/Candy World/Candy World/Tiles &amp; Objects/Tiles &amp; Objects (128x128)-01.png" width="1024" height="1408"/>
 </tileset>
 <layer id="1" name="Tile Layer 1" width="60" height="34">
  <data encoding="csv">
0,0,0,0,0,0,0,0,0,0,0,0,0,0,0,0,0,0,0,0,0,0,0,0,0,0,0,0,0,0,0,0,0,0,0,0,0,0,0,0,0,0,0,0,0,0,0,0,0,0,0,0,0,0,0,0,0,0,0,0,
0,0,0,0,0,0,0,0,0,0,0,0,0,0,0,0,0,0,0,0,0,0,0,0,0,0,0,0,0,0,0,0,0,0,0,0,0,0,0,0,0,0,0,0,0,0,0,0,0,0,0,0,0,0,0,0,0,0,0,0,
0,0,0,0,0,0,0,0,0,0,0,0,0,0,0,0,0,0,0,0,0,0,0,0,0,0,0,0,0,0,0,0,0,0,0,0,0,0,0,0,0,0,0,0,0,0,0,0,0,0,0,0,0,0,0,0,0,0,0,0,
0,0,0,0,0,0,0,0,0,0,0,0,0,0,0,0,0,0,0,0,0,0,0,0,0,0,0,0,0,0,0,0,0,0,0,0,0,0,0,0,0,0,0,0,0,0,0,0,0,0,0,0,0,0,0,0,0,0,0,0,
0,0,0,0,0,0,0,0,0,0,0,0,0,0,0,0,0,0,0,0,0,0,0,0,0,0,0,0,0,0,0,0,0,0,0,0,0,0,0,0,0,0,0,0,0,0,0,0,0,0,0,0,0,0,0,0,0,0,0,0,
0,0,0,0,0,0,0,0,0,0,0,0,0,0,670,671,0,666,667,0,0,0,0,0,0,0,0,0,0,0,0,0,0,0,0,0,0,0,0,0,0,794,795,0,798,799,0,0,0,0,0,0,0,0,0,0,0,0,0,0,
0,0,0,0,0,0,0,0,0,0,0,0,0,0,702,703,0,698,699,0,0,0,0,0,0,0,0,0,0,0,0,0,0,0,0,0,0,0,0,0,0,826,827,0,830,831,0,0,0,0,0,0,0,0,0,0,0,0,0,0,
0,0,0,0,0,0,0,0,0,0,0,0,0,0,734,735,0,730,731,0,0,0,0,0,0,0,0,0,0,0,0,0,0,0,0,0,0,0,0,0,0,858,859,0,862,863,0,0,0,0,0,0,0,0,0,0,0,0,0,0,
0,0,0,0,0,0,0,0,0,0,0,0,0,0,766,767,0,762,763,0,0,0,0,0,0,0,0,0,0,0,0,0,0,0,0,0,0,0,0,0,0,890,891,0,894,895,0,0,0,0,0,0,0,0,0,0,0,0,0,0,
0,0,0,0,0,0,0,0,0,0,0,0,0,401,402,403,404,406,407,408,0,0,0,0,0,0,0,0,0,0,0,0,0,0,0,0,0,0,0,0,401,402,403,404,406,407,408,0,0,0,0,0,0,0,0,0,0,0,0,0,
0,0,0,0,0,0,0,0,0,0,0,0,0,433,434,435,436,438,439,440,0,0,0,285,286,287,288,0,0,0,0,0,0,285,286,287,288,0,0,0,433,434,435,436,438,439,440,0,0,0,0,0,0,0,0,0,0,0,0,0,
0,0,0,0,0,0,0,0,0,0,0,0,0,465,466,467,468,470,471,472,0,0,0,317,318,319,320,0,0,0,0,0,0,317,318,319,320,0,0,0,465,466,467,468,470,471,472,0,0,0,0,0,0,0,0,0,0,0,0,0,
0,0,0,0,0,0,0,0,0,0,0,0,0,497,498,499,500,502,503,504,0,0,0,349,350,351,352,0,0,0,0,0,0,349,350,351,352,0,0,0,497,498,499,500,502,503,504,0,0,0,0,0,0,0,0,0,0,0,0,0,
0,0,0,0,0,0,0,0,0,0,0,0,401,402,403,404,403,404,405,407,408,0,0,381,382,383,384,0,0,0,0,0,0,381,382,383,384,0,0,401,402,403,404,403,404,405,407,408,0,0,0,0,0,0,0,0,0,0,0,0,
0,0,0,0,0,0,0,0,0,0,0,0,433,434,435,436,435,436,437,439,440,0,0,0,0,0,0,0,0,0,0,0,0,0,0,0,0,0,0,433,434,435,436,435,436,437,439,440,0,0,0,0,0,0,0,0,0,0,0,0,
0,0,0,0,0,0,0,0,0,0,0,0,465,466,467,468,467,468,469,471,472,0,0,0,0,0,0,0,0,0,0,0,0,0,0,0,0,0,0,465,466,467,468,467,468,469,471,472,0,0,0,0,0,0,0,0,0,0,0,0,
0,0,0,0,0,0,0,0,0,0,0,0,497,498,499,500,499,500,501,503,504,0,0,0,1,2,3,4,5,6,7,8,9,10,11,12,0,0,0,497,498,499,500,499,500,501,503,504,0,0,0,0,0,0,0,0,0,0,0,0,
0,0,0,0,0,0,0,0,0,0,0,401,402,403,403,404,405,406,403,404,407,408,0,0,33,34,35,36,37,38,39,40,41,42,43,44,0,0,401,402,403,403,404,405,406,403,404,407,408,0,0,0,0,0,0,0,0,0,0,0,
0,0,0,0,0,0,0,0,0,0,0,433,434,435,435,436,437,438,435,436,439,440,0,0,65,66,67,68,69,70,71,72,73,74,75,76,0,0,433,434,435,435,436,437,438,435,436,439,440,0,0,0,0,0,0,0,0,0,0,0,
0,0,0,0,0,0,0,0,0,0,0,465,466,467,467,468,469,470,467,468,471,472,0,0,97,98,99,100,101,102,103,104,105,106,107,108,0,0,465,466,467,467,468,469,470,467,468,471,472,0,0,0,0,0,0,0,0,0,0,0,
0,0,0,0,0,0,0,0,0,0,0,497,498,499,499,500,501,502,499,500,503,504,0,0,0,0,0,0,0,0,0,0,0,0,0,0,0,0,497,498,499,499,500,501,502,499,500,503,504,0,0,0,0,0,0,0,0,0,0,0,
0,0,0,0,0,0,0,0,0,0,401,402,403,404,403,404,405,404,405,406,406,407,408,0,0,0,0,0,29,30,31,32,0,0,0,0,0,401,402,403,403,404,405,406,403,404,405,406,407,408,0,0,0,0,0,0,0,0,0,0,
0,0,0,0,0,0,0,0,0,0,433,434,435,436,435,436,437,436,437,438,438,439,440,0,0,0,0,0,61,62,63,64,0,0,0,0,0,433,434,435,435,436,437,438,435,436,437,438,439,440,0,0,0,0,0,0,0,0,0,0,
0,0,0,0,0,0,0,0,0,0,465,466,467,468,467,468,469,468,469,470,470,471,472,0,0,0,0,0,93,94,95,96,0,0,0,0,0,465,466,467,467,468,469,470,467,468,469,470,471,472,0,0,0,0,0,0,0,0,0,0,
0,0,0,0,0,0,0,0,0,0,497,498,499,500,499,500,501,500,501,502,502,503,504,0,0,0,0,0,125,126,127,128,0,0,0,0,0,497,498,499,499,500,501,502,499,500,501,502,503,504,0,0,0,0,0,0,0,0,0,0,
0,0,0,0,0,1,2,3,4,5,5,6,7,8,9,10,5,6,7,8,9,10,5,6,7,8,9,10,5,6,7,8,9,10,5,6,7,8,9,10,5,6,7,8,9,10,5,6,7,8,8,9,10,11,12,0,0,0,0,0,
0,0,0,0,0,33,34,35,36,37,37,38,39,40,41,42,37,38,39,40,41,42,37,38,39,40,41,42,37,38,39,40,41,42,37,38,39,40,41,42,37,38,39,40,41,42,37,38,39,40,40,41,42,43,44,0,0,0,0,0,
0,0,0,0,0,545,546,547,548,549,550,551,548,549,550,551,552,553,548,549,550,551,552,553,548,549,550,551,552,553,548,549,550,551,552,553,548,549,550,551,552,553,548,549,550,551,552,553,548,549,552,553,554,555,556,0,0,0,0,0,
0,0,0,0,0,577,578,579,580,581,582,583,580,581,582,583,584,585,580,581,582,583,584,585,580,581,582,583,584,585,580,581,582,583,584,585,580,581,582,583,584,585,580,581,582,583,584,585,580,581,584,585,586,587,588,0,0,0,0,0,
0,0,0,0,0,609,610,611,612,613,614,615,612,613,614,615,616,617,612,613,614,615,616,617,612,613,614,615,616,617,612,613,614,615,616,617,612,613,614,615,616,617,612,613,614,615,616,617,612,613,616,617,618,619,620,0,0,0,0,0,
0,0,0,0,0,0,0,0,0,0,0,0,0,0,0,0,0,0,0,0,0,0,0,0,0,0,0,0,0,0,0,0,0,0,0,0,0,0,0,0,0,0,0,0,0,0,0,0,0,0,0,0,0,0,0,0,0,0,0,0,
0,0,0,0,0,0,0,0,0,0,0,0,0,0,0,0,0,0,0,0,0,0,0,0,0,0,0,0,0,0,0,0,0,0,0,0,0,0,0,0,0,0,0,0,0,0,0,0,0,0,0,0,0,0,0,0,0,0,0,0,
0,0,0,0,0,0,0,0,0,0,0,0,0,0,0,0,0,0,0,0,0,0,0,0,0,0,0,0,0,0,0,0,0,0,0,0,0,0,0,0,0,0,0,0,0,0,0,0,0,0,0,0,0,0,0,0,0,0,0,0,
0,0,0,0,0,0,0,0,0,0,0,0,0,0,0,0,0,0,0,0,0,0,0,0,0,0,0,0,0,0,0,0,0,0,0,0,0,0,0,0,0,0,0,0,0,0,0,0,0,0,0,0,0,0,0,0,0,0,0,0
</data>
 </layer>
 <layer id="2" name="Tile Layer 2" width="60" height="34">
  <data encoding="csv">
0,0,0,0,0,0,0,0,0,0,0,0,0,0,0,0,0,0,0,0,0,0,0,0,0,0,0,0,0,0,0,0,0,0,0,0,0,0,0,0,0,0,0,0,0,0,0,0,0,0,0,0,0,0,0,0,0,0,0,0,
0,0,0,0,0,0,0,0,0,0,0,0,0,0,0,0,0,0,0,0,0,0,0,0,0,0,0,0,0,0,0,0,0,0,0,0,0,0,0,0,0,0,0,0,0,0,0,0,0,0,0,0,0,0,0,0,0,0,0,0,
0,0,0,0,0,0,0,0,0,0,0,0,0,0,0,0,0,0,0,0,0,0,0,0,0,0,0,0,0,0,0,0,0,0,0,0,0,0,0,0,0,0,0,0,0,0,0,0,0,0,0,0,0,0,0,0,0,0,0,0,
0,0,0,0,0,0,0,0,0,0,0,0,0,0,0,0,0,0,0,0,0,0,1209,1210,1211,1212,0,0,0,0,0,0,0,0,0,0,0,0,0,0,0,0,0,0,0,0,0,0,0,0,0,0,0,0,0,0,0,0,0,0,
0,0,0,0,0,0,0,0,0,0,0,0,0,0,0,0,0,0,0,0,0,0,1241,1242,1243,1244,0,0,0,0,0,0,0,0,0,0,0,0,0,0,0,0,0,0,0,0,0,0,0,0,0,0,0,0,0,0,0,0,0,0,
0,0,0,0,0,0,0,0,0,0,0,0,0,0,0,0,0,0,0,0,0,0,1273,1274,1275,1276,0,0,0,0,0,0,0,0,0,0,0,0,0,0,0,0,0,0,0,0,0,0,0,0,0,0,0,0,0,0,0,0,0,0,
0,0,0,0,0,0,0,0,0,0,0,0,0,0,0,0,0,0,0,0,0,0,1305,1306,1307,1308,0,0,0,0,0,0,0,0,0,0,0,0,0,0,0,0,0,0,0,0,0,0,0,0,0,0,0,0,0,0,0,0,0,0,
0,0,0,0,0,0,0,0,0,0,0,0,0,0,0,0,0,0,0,0,0,0,1337,1338,1339,1340,0,0,0,0,0,0,0,817,818,819,820,0,0,0,0,0,0,0,0,0,0,0,0,0,0,0,0,0,0,0,0,0,0,0,
0,0,0,0,0,0,0,0,0,0,0,0,0,0,0,0,0,0,0,0,0,0,1369,1370,1371,1372,0,0,0,0,0,0,0,849,850,851,852,0,0,0,0,0,0,0,0,0,0,0,0,0,0,0,0,0,0,0,0,0,0,0,
0,0,0,0,0,0,0,0,0,0,0,0,0,0,0,0,0,0,0,0,0,0,1401,1402,1403,1404,0,0,0,0,0,0,0,881,882,883,884,0,0,0,0,0,1053,1054,1055,1056,0,0,0,0,0,0,0,0,0,0,0,0,0,0,
0,0,0,0,0,0,0,0,0,0,0,0,0,0,0,0,0,0,0,0,0,0,0,0,0,0,0,0,0,0,0,0,0,0,0,0,0,0,0,0,0,0,1085,1086,1087,1088,0,0,0,0,0,0,0,0,0,0,0,0,0,0,
0,0,0,0,0,0,0,0,0,0,0,0,0,0,0,0,0,0,0,0,0,0,0,0,0,0,0,0,0,0,0,0,0,0,0,0,0,0,0,0,0,0,1117,1118,1119,1120,0,0,0,0,0,0,0,0,0,0,0,0,0,0,
0,0,0,0,0,0,0,0,0,0,0,0,0,0,0,0,0,0,0,0,0,0,0,0,0,0,0,0,0,0,0,0,0,0,0,0,0,0,0,0,0,0,1149,1150,1151,1152,0,0,0,0,0,0,0,0,0,0,0,0,0,0,
0,0,0,0,0,0,0,0,0,0,0,0,0,1049,1050,1051,1052,0,0,0,0,0,0,0,0,0,0,0,0,0,0,0,0,0,0,0,0,0,0,0,0,0,0,0,0,0,0,0,0,0,0,0,0,0,0,0,0,0,0,0,
0,0,0,0,0,0,0,0,0,0,0,0,0,1081,1082,1083,1084,0,0,0,0,0,0,0,0,0,0,0,0,0,0,0,0,0,0,0,0,0,0,0,0,0,0,0,0,0,0,0,0,0,0,0,0,0,0,0,0,0,0,0,
0,0,0,0,0,0,0,0,0,0,0,0,0,1113,1114,1115,1116,0,0,0,0,0,0,0,0,0,0,0,0,0,0,0,0,0,0,0,0,0,0,0,0,0,0,0,0,0,0,0,0,0,0,0,0,0,0,0,0,0,0,0,
0,0,0,0,0,0,0,0,0,0,0,0,0,1145,1146,1147,1148,0,0,0,0,0,0,0,0,0,0,0,0,0,0,0,0,0,0,0,0,0,0,0,0,0,0,0,0,0,0,0,0,0,0,0,0,0,0,0,0,0,0,0,
0,0,0,0,0,0,0,0,0,0,0,0,0,0,0,0,0,0,0,0,0,0,0,0,0,0,0,0,0,0,0,0,0,0,0,0,0,0,0,0,0,0,0,0,925,926,927,928,0,0,0,0,0,0,0,0,0,0,0,0,
0,0,0,0,0,0,0,0,0,0,0,0,0,0,0,0,0,0,0,0,0,0,0,0,0,0,0,0,0,0,0,0,0,0,0,0,0,0,0,0,0,0,0,0,957,958,959,960,0,0,0,0,0,0,0,0,0,0,0,0,
0,0,0,0,0,0,0,0,0,0,0,0,0,0,0,0,0,0,0,0,0,0,0,0,0,0,0,0,0,0,0,0,0,0,0,0,0,0,0,0,0,0,0,0,989,990,991,992,0,0,0,0,0,0,0,0,0,0,0,0,
0,0,0,0,0,0,0,0,0,0,0,0,0,0,0,0,0,0,0,0,0,0,0,0,0,0,0,0,0,0,0,0,0,0,0,0,0,0,0,0,0,0,0,0,1021,1022,1023,1024,0,0,0,0,0,0,0,0,0,0,0,0,
0,0,0,0,0,0,0,0,0,0,0,0,0,0,0,0,0,0,0,0,0,921,922,923,924,0,0,0,0,0,0,0,0,0,0,0,0,0,0,0,0,0,0,0,0,0,0,0,0,0,0,0,0,0,0,0,0,0,0,0,
0,0,0,0,0,0,0,0,0,0,0,0,0,0,0,0,0,0,0,0,0,953,954,955,956,0,0,0,0,0,0,0,0,0,0,0,0,0,0,0,0,0,0,0,0,0,0,0,0,0,0,0,0,0,0,0,0,0,0,0,
0,0,0,0,0,0,0,0,0,0,0,0,0,0,0,0,0,0,0,0,0,985,986,987,988,0,0,0,0,0,0,0,0,0,0,0,0,0,0,0,0,0,0,0,0,0,0,0,0,0,0,0,0,0,0,0,0,0,0,0,
0,0,0,0,0,0,0,0,0,0,0,0,0,0,0,0,0,0,0,0,0,1017,1018,1019,1020,0,0,0,0,0,0,0,0,0,0,0,0,0,0,0,0,0,0,0,0,0,0,0,0,0,0,0,0,0,0,0,0,0,0,0,
0,0,0,0,0,0,0,0,0,0,0,0,0,0,0,0,0,0,0,0,0,0,0,0,0,0,0,0,0,0,0,0,0,0,0,0,0,0,0,0,0,0,0,0,0,0,0,0,0,0,0,0,0,0,0,0,0,0,0,0,
0,0,0,0,0,0,0,0,0,0,0,0,0,0,0,0,0,0,0,0,0,0,0,0,0,0,0,0,0,0,0,0,0,0,0,0,0,0,0,0,0,0,0,0,0,0,0,0,0,0,0,0,0,0,0,0,0,0,0,0,
0,0,0,0,0,0,0,0,0,0,0,0,0,0,0,0,0,0,0,0,0,0,0,0,0,0,0,0,0,0,0,0,0,0,0,0,0,0,0,0,0,0,0,0,0,0,0,0,0,0,0,0,0,0,0,0,0,0,0,0,
0,0,0,0,0,0,0,0,0,0,0,0,0,0,0,0,0,0,0,0,0,0,0,0,0,0,0,0,0,0,0,0,0,0,0,0,0,0,0,0,0,0,0,0,0,0,0,0,0,0,0,0,0,0,0,0,0,0,0,0,
0,0,0,0,0,0,0,0,0,0,0,0,0,0,0,0,0,0,0,0,0,0,0,0,0,0,0,0,0,0,0,0,0,0,0,0,0,0,0,0,0,0,0,0,0,0,0,0,0,0,0,0,0,0,0,0,0,0,0,0,
0,0,0,0,0,0,0,0,0,0,0,0,0,0,0,0,0,0,0,0,0,0,0,0,0,0,0,0,0,0,0,0,0,0,0,0,0,0,0,0,0,0,0,0,0,0,0,0,0,0,0,0,0,0,0,0,0,0,0,0,
0,0,0,0,0,0,0,0,0,0,0,0,0,0,0,0,0,0,0,0,0,0,0,0,0,0,0,0,0,0,0,0,0,0,0,0,0,0,0,0,0,0,0,0,0,0,0,0,0,0,0,0,0,0,0,0,0,0,0,0,
0,0,0,0,0,0,0,0,0,0,0,0,0,0,0,0,0,0,0,0,0,0,0,0,0,0,0,0,0,0,0,0,0,0,0,0,0,0,0,0,0,0,0,0,0,0,0,0,0,0,0,0,0,0,0,0,0,0,0,0,
0,0,0,0,0,0,0,0,0,0,0,0,0,0,0,0,0,0,0,0,0,0,0,0,0,0,0,0,0,0,0,0,0,0,0,0,0,0,0,0,0,0,0,0,0,0,0,0,0,0,0,0,0,0,0,0,0,0,0,0
</data>
 </layer>
 <objectgroup id="3" name="oneWayPlatform">
  <object id="18" type="oneWayPlatform" x="333" y="672" width="387" height="14"/>
  <object id="19" type="oneWayPlatform" x="367" y="545" width="322" height="10"/>
  <object id="20" type="oneWayPlatform" x="398" y="417" width="260" height="10"/>
  <object id="21" type="oneWayPlatform" x="430" y="289" width="197" height="9"/>
  <object id="22" type="oneWayPlatform" x="750" y="321" width="99" height="12"/>
  <object id="23" type="oneWayPlatform" x="1070" y="323" width="103" height="9"/>
  <object id="24" type="oneWayPlatform" x="1292" y="288" width="194" height="14"/>
  <object id="25" type="oneWayPlatform" x="1261" y="416" width="259" height="8"/>
  <object id="26" type="oneWayPlatform" x="1229" y="544" width="328" height="13"/>
  <object id="27" type="oneWayPlatform" x="1200" y="673" width="385" height="10"/>
  <object id="28" type="oneWayPlatform" x="907" y="672" width="101" height="12"/>
  <object id="29" type="oneWayPlatform" x="780" y="511" width="356" height="16"/>
 </objectgroup>
 <objectgroup id="4" name="platform">
  <object id="17" type="platform" x="174" y="800" width="1575" height="19"/>
 </objectgroup>
</map>
